svg/u1f40b.svg

<svg viewBox="0 0 128 128" xmlns="http://www.w3.org/2000/svg">
  <path d="M12.19,51.32c10.07-4.17,26.12,1.74,29.42,1.22c3.3-0.52,3.82-2.95,9.38-2.95s9.9,3.65,9.9,3.65 s1.57-1.41,4.69-1.56c3.65-0.17,8.16,2.43,11.81,5.38C81.01,60.01,85.18,64,89,64.52c3.82,0.52,7.47,0.69,10.94-5.03 s0.87-14.41-0.35-17.19s-5.03-7.64-5.03-7.64v-6.94l5.9,2.78c0,0,8.68,6.6,11.81,10.59s12.33,15.28,8.16,35.07 c-4.17,19.79-15.62,22.92-15.62,22.92l13.37,0.52l4.69,2.26c0,0-1.39,3.47-4.51,5.21c-3.26,1.81-8.68,4.51-18.06,2.26 s-62.33-2.08-62.33-2.08s-3.99,5.03-12.85,5.38c-8.85,0.35-13-1.19-13.35-2.58c-0.35-1.39,3.1-3.32,3.1-3.32l9.55-2.08l8.51-5.56 l-18.4-23.78l-8.33-7.64c0,0-1.41-4.83,0.37-10.27C7.63,54.09,9.43,52.47,12.19,51.32z" fill="#6BA4AE"/>
  <path d="M98.38,33.79c0,0,6.52-6.68,6.94-13.72c0.39-6.41-1.6-7.96-2.47-7.61c-0.87,0.35-1.52,2.57-3.08,3.96 s-5.38,4.34-6.42,5.9s-0.52,5.03-0.52,5.03s-3.99-1.22-6.6-0.35s-5.03,3.65-6.77,4.34c-1.74,0.69-4.34,0.87-4.34,1.91 c0,1.04,5.03,3.99,10.94,3.99C91.95,37.26,98.38,33.79,98.38,33.79z" fill="#6BA4AE"/>
  <path d="M103.24,55.49c0,0-3.82-1.04-5.56,1.91c-1.74,2.95,0.35,6.08,0.35,6.08L103.24,55.49z" fill="#6BA4AE"/>
  <path d="M74.68,77.73c0.61,1.69-0.38,3.6-2.21,4.26c-1.83,0.66-3.81-0.17-4.42-1.87 c-0.61-1.69,0.45-3.43,2.21-4.26C72.44,74.83,74.07,76.04,74.68,77.73z" fill="#2E302F"/>
  <path d="M5.57,63.92c0,0,2.25-1.34,5.21-1.34s8.31,1.41,13.23,3.24s20.98,9.01,24.35,10.7 c3.38,1.69,7.21,3.01,8.73,3.52c2.53,0.84,6.9,1.41,6.9,1.41S51.18,71.31,38.79,65.4s-19.43-8.73-27.59-8.59 c-5.23,0.09-4.72,0.7-4.72,0.7S5.57,61.25,5.57,63.92z" fill="#FEE9C6"/>
  <path d="M8.24,66.11c3.66,0,12.46,2.06,16.33,3.52c6.34,2.39,16.75,7.46,22.1,9.43 c5.35,1.97,20.27,6.62,29.14,11.83s13.09,11.26,15.91,13.51s6.19,4.65,6.19,4.65s-18.72,11.26-41.81,6.48S23.87,92.29,22.18,89.9 s-6.19-10.28-8.17-12.39c-1.97-2.11-6.84-7.86-7.83-9.86C5.29,65.82,8.24,66.11,8.24,66.11z" fill="#A5D0D6"/>
  <path d="M88.54,90.6c-1.15,0.34-1.03,2.91,5.26,6.01c6.29,3.1,15.04,3.57,20.39,3.57 c5.35,0,7.98,2.78,8.67,1.67c0.69-1.11-1.03-3.53-7.48-4.07c-5.63-0.47-10.89,0.23-17.36-2.21C90.47,92.73,90.13,90.13,88.54,90.6z" fill="#A5D0D6"/>
  <path d="M29.88,99.14c0,0-4.88,3.94-8.45,4.69c-3.57,0.75-7.23,1.13-9.01,3.1s-0.66,3.19-0.66,3.19 s1.69-2.16,4.79-2.53s7.6-1.31,9.85-2.53c2.25-1.22,7.41-4.32,7.41-4.32L29.88,99.14z" fill="#A5D0D6"/>
  <path d="M61.88,87.13c0,0,0.28,3.28,6.38,8.45c6.1,5.16,14.43,7.25,17.62,9.31c3.19,2.06,7.53,6.55,7.53,6.55 l1.88-1.03c0,0-4.55-5.16-9.2-7.91c-3.62-2.14-9.95-4.29-13.98-6.92c-4.04-2.63-5.98-4.34-6.92-5.47 C64.25,88.98,61.51,85.72,61.88,87.13z" fill="#DBECF7"/>
  <path d="M65.82,102.43c7.19,4.16,9.25,3.44,13.85,5.41s6.92,5.99,6.92,5.99l2.6-0.92c0,0-3.83-5.66-9-7.54 c-5.16-1.88-11.56-3.13-14.84-5.95c-3.28-2.82-6.19-7.56-9.95-12.06s-5.73-5.21-5.44-4.46c0.28,0.75,3.1,4.41,5.07,7.6 C57,93.7,60.47,99.33,65.82,102.43z" fill="#DBECF7"/>
  <path d="M22.75,83.75c4.69,6.32,7.88,5.91,12.2,11.64s6.66,11.17,8.35,13.14s3.71,3.82,6.62,4.95 c2.89,1.12,5.21,1.83,5.21,1.83s-6.48-0.12-11.73-3.68c-5.26-3.57-6.42-9.5-10.3-14.55c-2.82-3.66-5.06-5.32-7.46-7.25 c-4.79-3.85-7.09-8.7-8.45-11.68c-2.35-5.16-7.02-8.94-5.51-8.47c1.5,0.47,3.47,2.67,5.3,5.09C19.55,78.17,20.59,80.84,22.75,83.75z " fill="#DBECF7"/>
  <path d="M22.46,72.58c0,0,0.47,6.29,5.26,11.07s9.2,3.57,12.01,7.13s4.32,13.42,10.04,17.93 c5.73,4.5,7.13,2.53,12.29,4.41c5.16,1.88,5.03,3.67,5.03,3.67l3.17-0.14c0,0-1.45-3.6-6.61-5.29c-5.16-1.69-8.34-0.86-12.37-4.71 c-4.04-3.85-6.29-12.67-9.48-16.99c-3.19-4.32-9.67-4.32-12.76-7.79C24.63,76.94,23.03,70.96,22.46,72.58z" fill="#DBECF7"/>
  <path d="M46.87,88.72c3.05,3.86,3.19,10.32,8.26,14.92s10.57,4.26,14.51,5.95c3.94,1.69,7.87,6.41,7.87,6.41 l3.24-0.7c0,0-2.76-3.63-9.7-7.47c-5.92-3.27-9.44-1.38-13.85-5.41c-4.41-4.04-4.5-10.03-8.35-15.02 c-3.85-4.97-8.92-5.54-11.92-7.13c-2.58-1.37-6.43-7.56-5.73-5.16c0.43,1.45,1.88,5.07,4.88,7.23 C39.08,84.5,43.67,84.69,46.87,88.72z" fill="#DBECF7"/>
</svg>

<svg viewBox="0 0 128 128" xmlns="http://www.w3.org/2000/svg">
  <defs/>
  <path d="M12.19,51.32 C22.26,47.15 38.31,53.06 41.61,52.54 C44.91,52.02 45.43,49.59 50.99,49.59 C56.55,49.59 60.89,53.24 60.89,53.24 C60.89,53.24 62.46,51.83 65.58,51.68 C69.23,51.51 73.74,54.11 77.39,57.06 C81.01,60.01 85.18,64 89,64.52 C92.82,65.04 96.47,65.21 99.94,59.49 C103.41,53.77 100.81,45.08 99.59,42.3 C98.37,39.52 94.56,34.66 94.56,34.66 L94.56,27.72 L100.46,30.5 C100.46,30.5 109.14,37.1 112.27,41.09 C115.4,45.08 124.6,56.37 120.43,76.16 C116.26,95.95 104.81,99.08 104.81,99.08 L118.18,99.6 L122.87,101.86 C122.87,101.86 121.48,105.33 118.36,107.07 C115.1,108.88 109.68,111.58 100.3,109.33 C90.92,107.08 37.97,107.25 37.97,107.25 C37.97,107.25 33.98,112.28 25.12,112.63 C16.27,112.98 12.12,111.44 11.77,110.05 C11.42,108.66 14.87,106.73 14.87,106.73 L24.42,104.65 L32.93,99.09 L14.53,75.31 L6.2,67.67 C6.2,67.67 4.79,62.84 6.57,57.4 C7.63,54.09 9.43,52.47 12.19,51.32 Z" fill="#6BA4AE"/>
  <path d="M98.38,33.79 C98.38,33.79 104.9,27.11 105.32,20.07 C105.71,13.66 103.72,12.11 102.85,12.46 C101.98,12.81 101.33,15.03 99.77,16.42 C98.21,17.81 94.39,20.76 93.35,22.32 C92.31,23.88 92.83,27.35 92.83,27.35 C92.83,27.35 88.84,26.13 86.23,27 C83.62,27.87 81.2,30.65 79.46,31.34 C77.72,32.03 75.12,32.21 75.12,33.25 C75.12,34.29 80.15,37.24 86.06,37.24 C91.95,37.26 98.38,33.79 98.38,33.79 Z" fill="#6BA4AE"/>
  <path d="M103.24,55.49 C103.24,55.49 99.42,54.45 97.68,57.4 C95.94,60.35 98.03,63.48 98.03,63.48 L103.24,55.49 Z" fill="#6BA4AE"/>
  <path d="M74.68,77.73 C75.29,79.42 74.3,81.33 72.47,81.99 C70.64,82.65 68.66,81.82 68.05,80.12 C67.44,78.43 68.5,76.69 70.26,75.86 C72.44,74.83 74.07,76.04 74.68,77.73 Z" fill="#2E302F"/>
  <path d="M5.57,63.92 C5.57,63.92 7.82,62.58 10.78,62.58 C13.74,62.58 19.09,63.99 24.01,65.82 C28.93,67.65 44.99,74.83 48.36,76.52 C51.74,78.21 55.57,79.53 57.09,80.04 C59.62,80.88 63.99,81.45 63.99,81.45 C63.99,81.45 51.18,71.31 38.79,65.4 C26.4,59.49 19.36,56.67 11.2,56.81 C5.97,56.9 6.48,57.51 6.48,57.51 C6.48,57.51 5.57,61.25 5.57,63.92 Z" fill="#FEE9C6"/>
  <path d="M8.24,66.11 C11.9,66.11 20.7,68.17 24.57,69.63 C30.91,72.02 41.32,77.09 46.67,79.06 C52.02,81.03 66.94,85.68 75.81,90.89 C84.68,96.1 88.9,102.15 91.72,104.4 C94.54,106.65 97.91,109.05 97.91,109.05 C97.91,109.05 79.19,120.31 56.1,115.53 C33.01,110.75 23.87,92.29 22.18,89.9 C20.49,87.51 15.99,79.62 14.01,77.51 C12.04,75.4 7.17,69.65 6.18,67.65 C5.29,65.82 8.24,66.11 8.24,66.11 Z" fill="#A5D0D6"/>
  <path d="M88.54,90.6 C87.39,90.94 87.51,93.51 93.8,96.61 C100.09,99.71 108.84,100.18 114.19,100.18 C119.54,100.18 122.17,102.96 122.86,101.85 C123.55,100.74 121.83,98.32 115.38,97.78 C109.75,97.31 104.49,98.01 98.02,95.57 C90.47,92.73 90.13,90.13 88.54,90.6 Z" fill="#A5D0D6"/>
  <path d="M29.88,99.14 C29.88,99.14 25,103.08 21.43,103.83 C17.86,104.58 14.2,104.96 12.42,106.93 C10.64,108.9 11.76,110.12 11.76,110.12 C11.76,110.12 13.45,107.96 16.55,107.59 C19.65,107.22 24.15,106.28 26.4,105.06 C28.65,103.84 33.81,100.74 33.81,100.74 L29.88,99.14 Z" fill="#A5D0D6"/>
  <path d="M61.88,87.13 C61.88,87.13 62.16,90.41 68.26,95.58 C74.36,100.74 82.69,102.83 85.88,104.89 C89.07,106.95 93.41,111.44 93.41,111.44 L95.29,110.41 C95.29,110.41 90.74,105.25 86.09,102.5 C82.47,100.36 76.14,98.21 72.11,95.58 C68.07,92.95 66.13,91.24 65.19,90.11 C64.25,88.98 61.51,85.72 61.88,87.13 Z" fill="#DBECF7"/>
  <path d="M65.82,102.43 C73.01,106.59 75.07,105.87 79.67,107.84 C84.27,109.81 86.59,113.83 86.59,113.83 L89.19,112.91 C89.19,112.91 85.36,107.25 80.19,105.37 C75.03,103.49 68.63,102.24 65.35,99.42 C62.07,96.6 59.16,91.86 55.4,87.36 C51.64,82.86 49.67,82.15 49.96,82.9 C50.24,83.65 53.06,87.31 55.03,90.5 C57,93.7 60.47,99.33 65.82,102.43 Z" fill="#DBECF7"/>
  <path d="M22.75,83.75 C27.44,90.07 30.63,89.66 34.95,95.39 C39.27,101.12 41.61,106.56 43.3,108.53 C44.99,110.5 47.01,112.35 49.92,113.48 C52.81,114.6 55.13,115.31 55.13,115.31 C55.13,115.31 48.65,115.19 43.4,111.63 C38.14,108.06 36.98,102.13 33.1,97.08 C30.28,93.42 28.04,91.76 25.64,89.83 C20.85,85.98 18.55,81.13 17.19,78.15 C14.84,72.99 10.17,69.21 11.68,69.68 C13.18,70.15 15.15,72.35 16.98,74.77 C19.55,78.17 20.59,80.84 22.75,83.75 Z" fill="#DBECF7"/>
  <path d="M22.46,72.58 C22.46,72.58 22.93,78.87 27.72,83.65 C32.51,88.43 36.92,87.22 39.73,90.78 C42.54,94.34 44.05,104.2 49.77,108.71 C55.5,113.21 56.9,111.24 62.06,113.12 C67.22,115 67.09,116.79 67.09,116.79 L70.26,116.65 C70.26,116.65 68.81,113.05 63.65,111.36 C58.49,109.67 55.31,110.5 51.28,106.65 C47.24,102.8 44.99,93.98 41.8,89.66 C38.61,85.34 32.13,85.34 29.04,81.87 C24.63,76.94 23.03,70.96 22.46,72.58 Z" fill="#DBECF7"/>
  <path d="M46.87,88.72 C49.92,92.58 50.06,99.04 55.13,103.64 C60.2,108.24 65.7,107.9 69.64,109.59 C73.58,111.28 77.51,116 77.51,116 L80.75,115.3 C80.75,115.3 77.99,111.67 71.05,107.83 C65.13,104.56 61.61,106.45 57.2,102.42 C52.79,98.38 52.7,92.39 48.85,87.4 C45,82.43 39.93,81.86 36.93,80.27 C34.35,78.9 30.5,72.71 31.2,75.11 C31.63,76.56 33.08,80.18 36.08,82.34 C39.08,84.5 43.67,84.69 46.87,88.72 Z" fill="#DBECF7"/>
</svg>
